build/img/icons/linkedin.svg

<svg width="17" height="17" viewBox="0 0 17 17" fill="none" xmlns="http://www.w3.org/2000/svg">
<path fill-rule="evenodd" clip-rule="evenodd" d="M3.77802 1.88889C3.77802 0.85 2.92802 0 1.88913 0C0.850244 0 0.000244141 0.85 0.000244141 1.88889C0.000244141 2.92778 0.850244 3.77778 1.88913 3.77778C2.92802 3.77778 3.77802 2.92778 3.77802 1.88889ZM3.77802 5.66667V17H0.000244141V5.66667H3.77802ZM17.0002 17H13.2225V10.625C13.2225 9.62389 12.0986 8.79278 11.0975 8.79278C10.0964 8.79278 9.44469 9.62389 9.44469 10.625V17H5.66691V5.66667H9.44469V7.55556C10.068 6.545 11.6736 5.89333 12.7502 5.89333C15.1114 5.89333 17.0002 7.82 17.0002 10.1528V17Z" fill="#FB0D1B"/>
</svg>

<svg xmlns="http://www.w3.org/2000/svg" viewBox="0 0 17 17">
  <path d="M3.78 1.89a1.89 1.89 0 1 0-1.89 1.89 1.89 1.89 0 0 0 1.89-1.89zm0 3.78V17H0V5.67zM17 17h-3.78v-6.37a2.12 2.12 0 0 0-2.12-1.84 1.71 1.71 0 0 0-1.66 1.84V17H5.67V5.67h3.77v1.89a4.36 4.36 0 0 1 3.31-1.67A4.26 4.26 0 0 1 17 10.15z" fill-rule="evenodd"/>
</svg>
